X:10
T:Todd Graham's Reel
R:reel
C:Glenn Graham
D:Cape Breton Fiddle and Piano Music, The Beaton Family of Mabou
Z:Paul Stewart Cranford (P.S.C.), <http://www.cranfordpub.com>
L:1/8
M:C|
Q:333
K:Ddor
z|A,G,A,C FDDF|E2 Gc ECCD|A,G,A,C FDDF|E2 Gc dDD:|
||E|FDDa cdea|gedc AGEC|FDDa cded|c2 GE FDDE|
FDDa cdea|gedc AGEC|A,G,A,C FDDF|E2 Gc dDD|]
